!!!ONB: MCCC : IFC0051_05 : Extracted Monophonic Melody
!!!COM: Chopin, Frédéric
!!!OPR: Mazurkas
!!!OMV: 5
!!!SCT: Op.30
!!!ODT: 1835///
**kern
*thru
*staff1
*Ipiano
*>A
*clefG2
*k[]
*C:
*M3/4
*MM180
=5
*>B
12dd
12gg
12dd
4g
8.cc
16ee
=6
12dd
12ee
12dd
4g
8.cc
16ee
=7
4aa
8.gg
16ee
8.ff
16dd
=8
8.cc
16ee
8.gg
16bb
8.ddd
16ccc
=9
12dd
12ee
12dd
4g
8.cc
16ee
=10
12dd
12ee
12dd
4g
8.cc
16ee
=11
4aa
8.gg
16ee
8.ff
16dd
=12
8.cc
16dd
8.ee
16b
8.dd
16cc
=13
12a
12b
12a
4d
8.g
16b
=14
12a
12b
12a
4d
8.g
16b
=15
4ee
8.dd
16b
8.cc
16a
=16
8.g
16b
8.dd
16ff#
8.aa
16gg
=17
12a
12b
12a
4d
8.g
16b
=18
12a
12b
12a
4d
8.g
16b
=19
4ff#
8.ee
16b
8.cc
16a
=20
8.g
16b
8.dd
16ff#
8.aa
16gg
=21
*>B
12dd
12gg
12dd
4g
8.cc
16ee
=22
12dd
12ee
12dd
4g
8.cc
16ee
=23
4aa
8.gg
16ee
8.ff
16dd
=24
8.cc
16ee
8.gg
16bb
8.ddd
16ccc
=25
12dd
12ee
12dd
4g
8.cc
16ee
=26
12dd
12ee
12dd
4g
8.cc
16ee
=27
4aa
8.gg
16ee
8.ff
16dd
=28
8.cc
16dd
8.ee
16b
8.dd
16cc
=29
12a
12b
12a
4d
8.g
16b
=30
12a
12b
12a
4d
8.g
16b
=31
4ee
8.dd
16b
8.cc
16a
=32
8.g
16b
8.dd
16ff#
8.aa
16gg
=33
12a
12b
12a
4d
8.g
16b
=34
12a
12b
12a
4d
8.g
16b
=35
4ff#
8.ee
16b
8.cc
16a
=36
8.g
16b
8.dd
16ff#
8.aa
16gg
=37
*>B
12dd
12gg
12dd
4g
8.cc
16ee
=38
12dd
12ee
12dd
4g
8.cc
16ee
=39
4aa
8.gg
16ee
8.ff
16dd
=40
8.cc
16ee
8.gg
16bb
8.ddd
16ccc
=41
12dd
12ee
12dd
4g
8.cc
16ee
=42
12dd
12ee
12dd
4g
8.cc
16ee
=43
4aa
8.gg
16ee
8.ff
16dd
=44
8.cc
16dd
8.ee
16b
8.dd
16cc
=45
12a
12b
12a
4d
8.g
16b
=46
12a
12b
12a
4d
8.g
16b
=47
4ee
8.dd
16b
8.cc
16a
=48
8.g
16b
8.dd
16ff#
8.aa
16gg
=49
12a
12b
12a
4d
8.g
16b
=50
12a
12b
12a
4d
8.g
16b
=51
4ff#
8.ee
16b
8.cc
16a
=52
8.g
16b
8.dd
16ff#
8.aa
16gg
==
*-
